src/4-icons/fingerprint.svg

<svg width="260" height="260" viewBox="0 0 260 260" fill="none" xmlns="http://www.w3.org/2000/svg">
<g opacity="0.9">
<path d="M0 48.3333V51C0 54.866 3.13401 58 7 58C10.866 58 14 54.866 14 51V49.2C14 29.7596 29.7596 14 49.2 14H54.8C74.2404 14 90 29.7596 90 49.2V51C90 54.866 93.134 58 97 58C100.866 58 104 54.866 104 51V48.3333C104 21.6396 82.3604 0 55.6667 0H48.3333C21.6396 0 0 21.6396 0 48.3333Z" fill="black"/>
<path d="M32.3333 58H32C28.134 58 25 54.866 25 51V49.5C25 35.4167 36.4167 24 50.5 24H53.5C67.5833 24 79 35.4167 79 49.5V51C79 54.866 75.866 58 72 58H71.6667C67.9848 58 65 55.0152 65 51.3333V51C65 43.8203 59.1797 38 52 38C44.8203 38 39 43.8203 39 51V51.3333C39 55.0152 36.0152 58 32.3333 58Z" fill="black"/>
<path fill-rule="evenodd" clip-rule="evenodd" d="M258.127 127.302C259.245 129.605 259.849 132.211 259.94 134.967V134.971C259.956 135.147 259.964 135.576 259.972 136.022C259.979 136.421 259.986 136.834 260 137.092C259.941 140.395 259.577 145.151 259.064 150.967C258.519 156.784 257.794 163.631 256.978 170.932C255.316 185.534 253.231 201.954 251.297 215.375C249.998 224.343 248.789 231.947 247.792 236.946C247.067 240.52 246.22 243.792 244.952 246.821C243.682 249.82 241.899 252.669 239.331 254.941C237.638 256.456 235.614 257.638 233.408 258.456C230.476 259.546 227.243 260 223.707 260H123.364C119.634 260 116.233 257.924 114.512 254.616L80.2212 188.712C78.8174 186.014 78.7177 182.824 79.9502 180.044L102.317 129.587C103.92 125.971 107.504 123.64 111.459 123.64H127.012V53.6638C127.012 50.5727 127.677 47.6047 128.916 45.0591C130.155 42.5136 131.938 40.3633 133.993 38.7266C138.134 35.4544 143.21 34 148.165 34C151.913 34 155.66 34.8166 159.074 36.6047C162.46 38.3929 165.542 41.2402 167.415 45.0875C168.654 47.6319 169.319 50.5703 169.319 53.691V93.6138C172.22 92.4327 175.333 91.8564 178.384 91.8564C182.132 91.8564 185.878 92.6742 189.293 94.4611C192.677 96.2185 195.759 99.0658 197.632 102.913C198.145 103.944 198.539 105.094 198.841 106.246C201.983 104.823 205.368 104.095 208.722 104.095C212.408 104.095 216.155 104.913 219.54 106.671C222.924 108.428 226.007 111.246 227.849 115.093C228.424 116.214 228.847 117.456 229.149 118.728C232.351 117.275 235.797 116.547 239.241 116.547C242.898 116.578 246.555 117.305 249.908 119.031C253.262 120.728 256.314 123.515 258.127 127.302ZM247.882 136.815V135.966L247.881 135.965V135.874C247.881 134.45 247.61 133.481 247.247 132.693C246.854 131.906 246.341 131.27 245.616 130.694C244.227 129.543 241.809 128.756 239.241 128.756C237.247 128.725 235.222 129.209 233.651 129.997C232.08 130.785 231.022 131.815 230.418 132.966C229.995 133.753 229.753 134.603 229.753 135.844C229.753 138.153 227.881 140.025 225.572 140.025H223.71C220.372 140.025 217.666 137.32 217.666 133.982V123.726C217.666 122.301 217.395 121.302 217.002 120.454C216.609 119.636 216.035 118.939 215.28 118.333C213.769 117.121 211.322 116.304 208.723 116.304C206.788 116.304 204.825 116.758 203.344 117.545C201.862 118.332 200.836 119.332 200.231 120.544C199.809 121.362 199.536 122.362 199.536 123.725V127.741C199.536 131.078 196.83 133.783 193.493 133.783C190.155 133.783 187.449 131.077 187.449 127.739V111.607C187.449 110.183 187.176 109.153 186.754 108.305C186.361 107.456 185.787 106.759 185.001 106.124C183.459 104.852 180.982 104.034 178.383 104.034C176.448 104.004 174.545 104.488 173.095 105.246C171.615 106.034 170.617 107.003 170.013 108.275C169.59 109.124 169.318 110.153 169.318 111.577V120.685C169.318 124.022 166.612 126.725 163.274 126.725C159.936 126.725 157.231 124.02 157.231 120.682V53.7194C157.231 52.2946 156.959 51.265 156.535 50.4165C156.142 49.5692 155.567 48.8709 154.783 48.2354C153.242 46.9621 150.763 46.1443 148.165 46.1443C146.231 46.1147 144.328 46.5988 142.877 47.3562C141.397 48.1431 140.4 49.1135 139.795 50.3857C139.373 51.2342 139.1 52.265 139.1 53.6887V172.214C139.1 175.551 136.395 178.197 133.057 178.197C129.719 178.197 127.013 175.493 127.013 172.155V135.783H116.064C114.086 135.783 112.294 136.949 111.493 138.757L92.3922 181.845C91.776 183.235 91.8258 184.83 92.5276 186.179L123.226 245.185C124.087 246.839 125.763 247.877 127.628 247.877H223.709C226.519 247.877 228.393 247.453 229.632 246.908C230.84 246.333 231.596 245.727 232.442 244.575C232.986 243.818 233.53 242.787 234.044 241.455C234.738 239.668 235.342 237.365 235.886 234.578C237.277 227.701 239.27 214.28 241.235 199.526C243.198 184.742 245.132 168.564 246.401 155.87C247.249 147.449 247.792 140.48 247.882 136.815Z" fill="black"/>
<path d="M0 81V83.6667C0 110.36 21.6396 132 48.3333 132H55.6667C82.3604 132 104 110.36 104 83.6667V81C104 77.134 100.866 74 97 74C93.134 74 90 77.134 90 81V82.8C90 102.24 74.2404 118 54.8 118H49.2C29.7596 118 14 102.24 14 82.8V81C14 77.134 10.866 74 7 74C3.13401 74 0 77.134 0 81Z" fill="black"/>
<path d="M32 74H32.3333C36.0152 74 39 76.9848 39 80.6667V81C39 88.1797 44.8203 94 52 94C59.1797 94 65 88.1797 65 81V80.6667C65 76.9848 67.9848 74 71.6667 74H72C75.866 74 79 77.134 79 81V82.5C79 96.5833 67.5833 108 53.5 108H50.5C36.4167 108 25 96.5833 25 82.5V81C25 77.134 28.134 74 32 74Z" fill="black"/>
<path d="M52 51C48.134 51 45 54.134 45 58V74C45 77.866 48.134 81 52 81C55.866 81 59 77.866 59 74V58C59 54.134 55.866 51 52 51Z" fill="black"/>
</g>
</svg>

<svg width="260" height="260" viewBox="0 0 260 260" fill="none" xmlns="http://www.w3.org/2000/svg"><g opacity=".9" fill="#000"><path d="M0 48.333V51a7 7 0 1 0 14 0v-1.8C14 29.76 29.76 14 49.2 14h5.6C74.24 14 90 29.76 90 49.2V51a7 7 0 1 0 14 0v-2.667C104 21.64 82.36 0 55.667 0h-7.334C21.64 0 0 21.64 0 48.333Z"/><path d="M32.333 58H32a7 7 0 0 1-7-7v-1.5C25 35.417 36.417 24 50.5 24h3C67.583 24 79 35.417 79 49.5V51a7 7 0 0 1-7 7h-.333A6.667 6.667 0 0 1 65 51.333V51c0-7.18-5.82-13-13-13s-13 5.82-13 13v.333A6.667 6.667 0 0 1 32.333 58Z"/><path fill-rule="evenodd" clip-rule="evenodd" d="M258.127 127.302c1.118 2.303 1.722 4.909 1.813 7.665v.004c.016.176.024.605.032 1.051.007.399.014.812.028 1.07-.059 3.303-.423 8.059-.936 13.875-.545 5.817-1.27 12.664-2.086 19.965-1.662 14.602-3.747 31.022-5.681 44.443-1.299 8.968-2.508 16.572-3.505 21.571-.725 3.574-1.572 6.846-2.84 9.875-1.27 2.999-3.053 5.848-5.621 8.12-1.693 1.515-3.717 2.697-5.923 3.515-2.932 1.09-6.165 1.544-9.701 1.544H123.364a9.971 9.971 0 0 1-8.852-5.384l-34.29-65.904a10 10 0 0 1-.272-8.668l22.367-50.457a10 10 0 0 1 9.142-5.947h15.553V53.664c0-3.091.665-6.06 1.904-8.605a18.441 18.441 0 0 1 5.077-6.332C138.134 35.454 143.21 34 148.165 34c3.748 0 7.495.817 10.909 2.605 3.386 1.788 6.468 4.635 8.341 8.483 1.239 2.544 1.904 5.482 1.904 8.603v39.923a24.144 24.144 0 0 1 9.065-1.758c3.748 0 7.494.818 10.909 2.605 3.384 1.758 6.466 4.605 8.339 8.452.513 1.031.907 2.181 1.209 3.333a24.013 24.013 0 0 1 9.881-2.151c3.686 0 7.433.818 10.818 2.576 3.384 1.757 6.467 4.575 8.309 8.422.575 1.121.998 2.363 1.3 3.635a24.427 24.427 0 0 1 10.092-2.181c3.657.031 7.314.758 10.667 2.484 3.354 1.697 6.406 4.484 8.219 8.271Zm-10.245 9.513v-.849l-.001-.001v-.091c0-1.424-.271-2.393-.634-3.181a5.752 5.752 0 0 0-1.631-1.999c-1.389-1.151-3.807-1.938-6.375-1.938-1.994-.031-4.019.453-5.59 1.241-1.571.788-2.629 1.818-3.233 2.969-.423.787-.665 1.637-.665 2.878a4.181 4.181 0 0 1-4.181 4.181h-1.862a6.043 6.043 0 0 1-6.044-6.043v-10.256c0-1.425-.271-2.424-.664-3.272-.393-.818-.967-1.515-1.722-2.121-1.511-1.212-3.958-2.029-6.557-2.029-1.935 0-3.898.454-5.379 1.241-1.482.787-2.508 1.787-3.113 2.999-.422.818-.695 1.818-.695 3.181v4.016a6.044 6.044 0 0 1-12.087-.002v-16.132c0-1.424-.273-2.454-.695-3.302-.393-.849-.967-1.546-1.753-2.181-1.542-1.272-4.019-2.09-6.618-2.09-1.935-.03-3.838.454-5.288 1.212-1.48.788-2.478 1.757-3.082 3.029-.423.849-.695 1.878-.695 3.302v9.108a6.041 6.041 0 0 1-6.044 6.04 6.042 6.042 0 0 1-6.043-6.043V53.719c0-1.424-.272-2.454-.696-3.303-.393-.847-.968-1.545-1.752-2.18-1.541-1.274-4.02-2.092-6.618-2.092-1.934-.03-3.837.455-5.288 1.212-1.48.787-2.477 1.758-3.082 3.03-.422.848-.695 1.879-.695 3.303v118.525c0 3.337-2.705 5.983-6.043 5.983a6.042 6.042 0 0 1-6.044-6.042v-36.372h-10.949a5 5 0 0 0-4.571 2.974l-19.1 43.088a5 5 0 0 0 .135 4.334l30.698 59.006c.861 1.654 2.537 2.692 4.402 2.692h96.081c2.81 0 4.684-.424 5.923-.969 1.208-.575 1.964-1.181 2.81-2.333.544-.757 1.088-1.788 1.602-3.12.694-1.787 1.298-4.09 1.842-6.877 1.391-6.877 3.384-20.298 5.349-35.052 1.963-14.784 3.897-30.962 5.166-43.656.848-8.421 1.391-15.39 1.481-19.055Z"/><path d="M0 81v2.667C0 110.36 21.64 132 48.333 132h7.334C82.36 132 104 110.36 104 83.667V81a7 7 0 1 0-14 0v1.8c0 19.44-15.76 35.2-35.2 35.2h-5.6C29.76 118 14 102.24 14 82.8V81a7 7 0 1 0-14 0Z"/><path d="M32 74h.333A6.667 6.667 0 0 1 39 80.667V81c0 7.18 5.82 13 13 13s13-5.82 13-13v-.333A6.667 6.667 0 0 1 71.667 74H72a7 7 0 0 1 7 7v1.5C79 96.583 67.583 108 53.5 108h-3C36.417 108 25 96.583 25 82.5V81a7 7 0 0 1 7-7Z"/><path d="M52 51a7 7 0 0 0-7 7v16a7 7 0 1 0 14 0V58a7 7 0 0 0-7-7Z"/></g></svg>
